images/monogram.svg

<svg xmlns="http://www.w3.org/2000/svg" width="134" height="72" viewBox="0 0 134 72"><g fill="#191A19" class="monogram"><path d="M102.1 0c.8 0 1.3.4 1.6 1l.1.1 30 67.3c.6 1.2-.1 2.5-1.5 2.6h-4.2c-.8 0-1.4-.5-1.6-1l-24.6-55.6h-.8L76.6 69.9c-.2.5-.7 1-1.5 1.1h-4.2c-1.4 0-2.2-1.2-1.8-2.4l.1-.2L99.4 1.1c.3-.5.7-1 1.5-1.1h1.2z" opacity=".25"/><path d="M38.9 72c.6 0 1.5-.5 1.7-1.1L59 18.1h.4l8.9 51.5c.2.7 1 1.4 1.8 1.4h4c1.5 0 2.1-1 1.8-2.4L63 1.4C62.8.6 62 0 61.2 0h-1.6c-.7 0-1.5.5-1.7 1.1L38.4 56.2h-.5L18.1 1.1c-.2-.6-1-1.1-1.7-1.1h-1.6C14 0 13.2.6 13 1.4L.1 68.6C-.2 70 .4 71 1.9 71h4c.8 0 1.7-.7 1.8-1.4l8.7-51.5h.4l18.6 52.8c.2.6 1.1 1.1 1.7 1.1h1.8z"/></g></svg>

<svg xmlns="http://www.w3.org/2000/svg" width="134" height="72" viewBox="0 0 134 72">
  <g style="fill:none;stroke-width:1;stroke:none">
    <g fill="#191A19" class="monogram">
        <path d="M102.1 0C102.9 0 103.4 0.4 103.7 1L103.8 1.1 133.8 68.4C134.4 69.6 133.7 70.9 132.3 71L132.1 71 128.1 71C127.3 71 126.7 70.5 126.5 70L101.9 14.4 101.1 14.4 76.6 69.9C76.4 70.4 75.9 70.9 75.1 71L74.9 71 70.9 71C69.5 71 68.7 69.8 69.1 68.6L69.2 68.4 99.4 1.1C99.7 0.6 100.1 0.1 100.9 0L101.1 0 102.1 0Z" opacity="0.25"/>
        <path d="M38.9 72C39.5 72 40.4 71.5 40.6 70.9L59 18.1 59.4 18.1 59.4 18.1 68.3 69.6C68.5 70.3 69.3 71 70.1 71L74.1 71C75.6 71 76.2 70 75.9 68.6L63 1.4C62.8 0.6 62 0 61.2 0L59.6 0C58.9 0 58.1 0.5 57.9 1.1L38.4 56.2 37.9 56.2 37.9 56.2 18.1 1.1C17.9 0.5 17.1 0 16.4 0L14.8 0C14 0 13.2 0.6 13 1.4L0.1 68.6C-0.2 70 0.4 71 1.9 71L5.9 71C6.7 71 7.6 70.3 7.7 69.6L16.4 18.1 16.8 18.1 16.8 18.1 35.4 70.9C35.6 71.5 36.5 72 37.1 72L38.9 72Z"/>
    </g>
  </g>
</svg>
